svg/Tango/actions/window-new.svg

<?xml version="1.0" encoding="UTF-8" standalone="no"?>
<!-- Created with Inkscape (http://www.inkscape.org/) -->
<svg
   xmlns:dc="http://purl.org/dc/elements/1.1/"
   xmlns:cc="http://creativecommons.org/ns#"
   xmlns:rdf="http://www.w3.org/1999/02/22-rdf-syntax-ns#"
   xmlns:svg="http://www.w3.org/2000/svg"
   xmlns="http://www.w3.org/2000/svg"
   xmlns:xlink="http://www.w3.org/1999/xlink"
   xmlns:sodipodi="http://sodipodi.sourceforge.net/DTD/sodipodi-0.dtd"
   xmlns:inkscape="http://www.inkscape.org/namespaces/inkscape"
   version="1.0"
   x="0.0000000"
   y="0.0000000"
   width="48.000000"
   height="48.000000"
   id="svg11300"
   sodipodi:version="0.32"
   inkscape:version="0.46"
   sodipodi:docname="window-new.svg"
   sodipodi:docbase="/home/jimmac/src/cvs/tango-icon-theme/scalable/actions"
   inkscape:output_extension="org.inkscape.output.svg.inkscape">
  <metadata
     id="metadata66">
    <rdf:RDF>
      <cc:Work
         rdf:about="">
        <dc:format>image/svg+xml</dc:format>
        <dc:type
           rdf:resource="http://purl.org/dc/dcmitype/StillImage" />
        <dc:title>New Window</dc:title>
        <dc:contributor>
          <cc:Agent>
            <dc:title>Corey Woodworth</dc:title>
          </cc:Agent>
        </dc:contributor>
        <cc:license
           rdf:resource="http://creativecommons.org/licenses/publicdomain/" />
        <dc:source>http://jimmac.musichall.cz</dc:source>
        <dc:creator>
          <cc:Agent>
            <dc:title>Jakub Steiner</dc:title>
          </cc:Agent>
        </dc:creator>
        <dc:subject>
          <rdf:Bag>
            <rdf:li>new</rdf:li>
            <rdf:li>insert</rdf:li>
            <rdf:li>window</rdf:li>
          </rdf:Bag>
        </dc:subject>
      </cc:Work>
      <cc:License
         rdf:about="http://creativecommons.org/licenses/publicdomain/">
        <cc:permits
           rdf:resource="http://creativecommons.org/ns#Reproduction" />
        <cc:permits
           rdf:resource="http://creativecommons.org/ns#Distribution" />
        <cc:permits
           rdf:resource="http://creativecommons.org/ns#DerivativeWorks" />
      </cc:License>
    </rdf:RDF>
  </metadata>
  <sodipodi:namedview
     inkscape:window-height="818"
     inkscape:window-width="1073"
     inkscape:pageshadow="2"
     inkscape:pageopacity="0.0"
     borderopacity="1.0"
     bordercolor="#666666"
     pagecolor="#ffffff"
     id="base"
     inkscape:zoom="1"
     inkscape:cx="-115.88454"
     inkscape:cy="27.766404"
     inkscape:window-x="361"
     inkscape:window-y="30"
     inkscape:current-layer="svg11300"
     showgrid="false" />
  <defs
     id="defs3">
    <inkscape:perspective
       sodipodi:type="inkscape:persp3d"
       inkscape:vp_x="0 : 24 : 1"
       inkscape:vp_y="0 : 1000 : 0"
       inkscape:vp_z="48 : 24 : 1"
       inkscape:persp3d-origin="24 : 16 : 1"
       id="perspective41" />
    <radialGradient
       inkscape:collect="always"
       xlink:href="#linearGradient5060"
       id="radialGradient5031"
       gradientUnits="userSpaceOnUse"
       gradientTransform="matrix(-2.774389,0,0,1.969706,112.7623,-872.8854)"
       cx="605.71429"
       cy="486.64789"
       fx="605.71429"
       fy="486.64789"
       r="117.14286" />
    <linearGradient
       inkscape:collect="always"
       id="linearGradient5060">
      <stop
         style="stop-color:black;stop-opacity:1;"
         offset="0"
         id="stop5062" />
      <stop
         style="stop-color:black;stop-opacity:0;"
         offset="1"
         id="stop5064" />
    </linearGradient>
    <radialGradient
       inkscape:collect="always"
       xlink:href="#linearGradient5060"
       id="radialGradient5029"
       gradientUnits="userSpaceOnUse"
       gradientTransform="matrix(2.774389,0,0,1.969706,-1891.633,-872.8854)"
       cx="605.71429"
       cy="486.64789"
       fx="605.71429"
       fy="486.64789"
       r="117.14286" />
    <linearGradient
       id="linearGradient5048">
      <stop
         style="stop-color:black;stop-opacity:0;"
         offset="0"
         id="stop5050" />
      <stop
         id="stop5056"
         offset="0.5"
         style="stop-color:black;stop-opacity:1;" />
      <stop
         style="stop-color:black;stop-opacity:0;"
         offset="1"
         id="stop5052" />
    </linearGradient>
    <linearGradient
       inkscape:collect="always"
       xlink:href="#linearGradient5048"
       id="linearGradient5027"
       gradientUnits="userSpaceOnUse"
       gradientTransform="matrix(2.774389,0,0,1.969706,-1892.179,-872.8854)"
       x1="302.85715"
       y1="366.64789"
       x2="302.85715"
       y2="609.50507" />
    <linearGradient
       id="linearGradient12512">
      <stop
         style="stop-color:#ffffff;stop-opacity:1.0000000"
         offset="0.0000000"
         id="stop12513" />
      <stop
         style="stop-color:#fff520;stop-opacity:0.89108908"
         offset="0.50000000"
         id="stop12517" />
      <stop
         style="stop-color:#fff300;stop-opacity:0.0000000"
         offset="1.0000000"
         id="stop12514" />
    </linearGradient>
    <linearGradient
       id="linearGradient4816">
      <stop
         style="stop-color:#204a87;stop-opacity:1.0000000"
         offset="0.0000000"
         id="stop4818" />
      <stop
         style="stop-color:#204a87;stop-opacity:0.0000000"
         offset="1.0000000"
         id="stop4820" />
    </linearGradient>
    <linearGradient
       id="linearGradient4808">
      <stop
         style="stop-color:#000000;stop-opacity:1.0000000"
         offset="0.0000000"
         id="stop4810" />
      <stop
         style="stop-color:#000000;stop-opacity:0.0000000"
         offset="1.0000000"
         id="stop4812" />
    </linearGradient>
    <linearGradient
       id="linearGradient3832">
      <stop
         style="stop-color:#ffffff;stop-opacity:1.0000000"
         offset="0.0000000"
         id="stop3834" />
      <stop
         style="stop-color:#e0e0e0;stop-opacity:1.0000000"
         offset="1.0000000"
         id="stop3836" />
    </linearGradient>
    <radialGradient
       inkscape:collect="always"
       xlink:href="#linearGradient12512"
       id="radialGradient1365"
       gradientUnits="userSpaceOnUse"
       cx="55.000000"
       cy="125.00000"
       fx="55.000000"
       fy="125.00000"
       r="14.375000"
       gradientTransform="matrix(0.626087,0.000000,0.000000,0.637205,4.565218,-70.81045)" />
    <radialGradient
       inkscape:collect="always"
       xlink:href="#linearGradient4808"
       id="radialGradient1372"
       gradientUnits="userSpaceOnUse"
       gradientTransform="matrix(1.945734,0.000000,0.000000,0.627274,-9.628455,24.25921)"
       cx="17.368311"
       cy="25.681942"
       fx="17.368311"
       fy="25.681942"
       r="11.799845" />
    <linearGradient
       inkscape:collect="always"
       xlink:href="#linearGradient4816"
       id="linearGradient2264"
       gradientUnits="userSpaceOnUse"
       x1="13.267747"
       y1="7.7190704"
       x2="13.267747"
       y2="12.480761"
       gradientTransform="matrix(2.930758,0.000000,0.000000,2.798505,-14.88456,-18.22945)" />
    <linearGradient
       inkscape:collect="always"
       xlink:href="#linearGradient3832"
       id="linearGradient2267"
       gradientUnits="userSpaceOnUse"
       gradientTransform="matrix(2.797614,0.000000,0.000000,2.581671,-13.88904,-17.13621)"
       x1="17.880680"
       y1="11.072588"
       x2="17.880680"
       y2="21.767578" />
  </defs>
  <g
     style="display:inline"
     id="g5022"
     transform="matrix(2.504444e-2,0,0,1.485743e-2,46.84737,42.26596)">
    <rect
       y="-150.69685"
       x="-1559.2523"
       height="478.35718"
       width="1339.6335"
       id="rect4173"
       style="opacity:0.40206185;color:black;fill:url(#linearGradient5027);fill-opacity:1;fill-rule:nonzero;stroke:none;stroke-width:1;stroke-linecap:round;stroke-linejoin:miter;marker:none;marker-start:none;marker-mid:none;marker-end:none;stroke-miterlimit:4;stroke-dasharray:none;stroke-dashoffset:0;stroke-opacity:1;visibility:visible;display:inline;overflow:visible" />
    <path
       sodipodi:nodetypes="cccc"
       id="path5058"
       d="M -219.61876,-150.68038 C -219.61876,-150.68038 -219.61876,327.65041 -219.61876,327.65041 C -76.744594,328.55086 125.78146,220.48075 125.78138,88.454235 C 125.78138,-43.572302 -33.655436,-150.68036 -219.61876,-150.68038 z "
       style="opacity:0.40206185;color:black;fill:url(#radialGradient5029);fill-opacity:1;fill-rule:nonzero;stroke:none;stroke-width:1;stroke-linecap:round;stroke-linejoin:miter;marker:none;marker-start:none;marker-mid:none;marker-end:none;stroke-miterlimit:4;stroke-dasharray:none;stroke-dashoffset:0;stroke-opacity:1;visibility:visible;display:inline;overflow:visible" />
    <path
       style="opacity:0.40206185;color:black;fill:url(#radialGradient5031);fill-opacity:1;fill-rule:nonzero;stroke:none;stroke-width:1;stroke-linecap:round;stroke-linejoin:miter;marker:none;marker-start:none;marker-mid:none;marker-end:none;stroke-miterlimit:4;stroke-dasharray:none;stroke-dashoffset:0;stroke-opacity:1;visibility:visible;display:inline;overflow:visible"
       d="M -1559.2523,-150.68038 C -1559.2523,-150.68038 -1559.2523,327.65041 -1559.2523,327.65041 C -1702.1265,328.55086 -1904.6525,220.48075 -1904.6525,88.454235 C -1904.6525,-43.572302 -1745.2157,-150.68036 -1559.2523,-150.68038 z "
       id="path5018"
       sodipodi:nodetypes="cccc" />
  </g>
  <rect
     width="45.004314"
     height="41.007298"
     rx="1.1061546"
     ry="1.106155"
     x="1.497833"
     y="3.4963515"
     style="color:#000000;fill:url(#linearGradient2267);fill-opacity:1;fill-rule:evenodd;stroke:#8d8d8d;stroke-width:1.00000036;stroke-linecap:butt;stroke-linejoin:miter;marker:none;marker-start:none;marker-mid:none;marker-end:none;stroke-miterlimit:4;stroke-dasharray:none;stroke-dashoffset:0;stroke-opacity:1;visibility:visible;display:inline;overflow:visible"
     id="rect3818" />
  <rect
     width="42"
     height="7"
     rx="0.22227089"
     ry="0.22227085"
     x="3"
     y="5"
     style="color:#000000;fill:url(#linearGradient2264);fill-opacity:1;fill-rule:evenodd;stroke:none;stroke-width:1;stroke-linecap:butt;stroke-linejoin:miter;marker:none;marker-start:none;marker-mid:none;marker-end:none;stroke-miterlimit:4;stroke-dasharray:none;stroke-dashoffset:0;stroke-opacity:1;visibility:visible;display:inline;overflow:visible"
     id="rect3820" />
  <rect
     width="42.974445"
     height="38.977924"
     rx="0.40406913"
     ry="0.35615534"
     x="2.5085137"
     y="4.5073576"
     style="color:#000000;fill:none;fill-opacity:1;fill-rule:evenodd;stroke:#ffffff;stroke-width:1.00000095;stroke-linecap:butt;stroke-linejoin:miter;marker:none;marker-start:none;marker-mid:none;marker-end:none;stroke-miterlimit:4;stroke-dasharray:none;stroke-dashoffset:0;stroke-opacity:0.47878789;visibility:visible;display:inline;overflow:visible"
     id="rect4962" />
  <path
     id="path12511"
     style="color:#000000;fill:url(#radialGradient1365);fill-opacity:1;fill-rule:nonzero;stroke:none;stroke-width:1.25000024;stroke-linecap:butt;stroke-linejoin:round;marker:none;marker-start:none;marker-mid:none;marker-end:none;stroke-miterlimit:4;stroke-dashoffset:0;stroke-opacity:1;visibility:visible;display:block"
     d="M 48.000004,8.840175 C 48.000004,13.899003 43.970566,17.999997 39.000003,17.999997 C 34.02944,17.999997 30.000002,13.899003 30.000002,8.840175 C 30.000002,3.7813472 34.02944,-0.31964688 39.000003,-0.31964688 C 43.970566,-0.31964688 48.000004,3.7813472 48.000004,8.840175 L 48.000004,8.840175 z " />
</svg>

<svg xmlns="http://www.w3.org/2000/svg" xmlns:xlink="http://www.w3.org/1999/xlink" viewBox="0 0 48 48"><defs><linearGradient id="5" gradientUnits="userSpaceOnUse" y1="7.719" x2="0" y2="12.481" gradientTransform="matrix(2.93076 0 0 2.79851-14.885-18.229)"><stop stop-color="#204a87"/><stop offset="1" stop-color="#204a87" stop-opacity="0"/></linearGradient><linearGradient id="3" gradientUnits="userSpaceOnUse" gradientTransform="matrix(2.77439 0 0 1.96971-1892.18-872.89)" y1="366.65" x2="0" y2="609.51"><stop stop-opacity="0"/><stop offset=".5"/><stop offset="1" stop-opacity="0"/></linearGradient><linearGradient id="1"><stop/><stop offset="1" stop-opacity="0"/></linearGradient><linearGradient id="6" gradientUnits="userSpaceOnUse" gradientTransform="matrix(2.79761 0 0 2.58167-13.889-17.14)" y1="11.07" x2="0" y2="21.768"><stop stop-color="#fff"/><stop offset="1" stop-color="#e0e0e0"/></linearGradient><radialGradient id="4" gradientUnits="userSpaceOnUse" cx="55" cy="125" r="14.375" gradientTransform="matrix(.62609 0 0 .63721 4.565-70.81)"><stop stop-color="#fff"/><stop offset=".5" stop-color="#fff520" stop-opacity=".891"/><stop offset="1" stop-color="#fff300" stop-opacity="0"/></radialGradient><radialGradient xlink:href="#1" id="0" gradientUnits="userSpaceOnUse" gradientTransform="matrix(-2.77439 0 0 1.96971 112.76-872.89)" cx="605.71" cy="486.65" r="117.14"/><radialGradient xlink:href="#1" id="2" gradientUnits="userSpaceOnUse" gradientTransform="matrix(2.77439 0 0 1.96971-1891.63-872.89)" cx="605.71" cy="486.65" r="117.14"/></defs><g color="#000"><g transform="matrix(.02504 0 0 .01486 46.847 42.27)"><path opacity=".402" fill="url(#3)" d="m-1559.25-150.7h1339.63v478.36h-1339.63z"/><path d="m-219.62-150.68c0 0 0 478.33 0 478.33 142.87.9 345.4-107.17 345.4-239.2 0-132.03-159.44-239.13-345.4-239.13" opacity=".402" fill="url(#2)"/><path d="m-1559.25-150.68c0 0 0 478.33 0 478.33-142.87.9-345.4-107.17-345.4-239.2 0-132.03 159.44-239.13 345.4-239.13" opacity=".402" fill="url(#0)"/></g><g fill-rule="evenodd"><rect width="45" height="41.01" rx="1.106" x="1.498" y="3.496" fill="url(#6)" stroke="#8d8d8d"/><rect width="42" height="7" rx=".222" x="3" y="5" fill="url(#5)"/><rect width="42.974" height="38.978" rx=".404" ry=".356" x="2.509" y="4.507" stroke-opacity=".479" fill="none" stroke="#fff"/></g><path d="m48 8.84c0 5.059-4.03 9.16-9 9.16-4.971 0-9-4.101-9-9.16 0-5.059 4.03-9.16 9-9.16 4.971 0 9 4.101 9 9.16" fill="url(#4)" display="block"/></g></svg>
